X: 3
I: linebreak $
T: Bassa Toscana
M: 4/4
L: 1/8
K: F major
M: 4/4P: A (5x)
"Gm"G2G2 GBAG | "D"^F2F2 F2GA | "Gm"BGAB "F"cFGA | "Bb"B2B2 B4 | "F"AGAB cBAG | "F"AGFE FGAB | 
"F"AFGA "Eb"GBAG | "D"^F2F2 F4 | "Gm"G2GA GFEG | "C"GDEF ECDE | "F"FBAG F_EDC | "Bb"D4 D4 | 
"Bb"B2B2 B2"F"A2 | "Gm"GABG cBAG | "D"^F2"C"G2 "Gm"G2"D"F2 | "G"G4 G4 "^(5)":| 
M: 6/8P: B
"Gm"G2G G2A/G/ | "D"^F2F F2G/A/ | "Bb"B2B "F"A2G/A/ | "Bb"B3 B3 | "F"AGA B2A | "F"A3 A2A | 
"Gm"B2"F"A "Gm"G2A/G/ | "D"^F2F F3 |: "Gm"G2G G3/E/F | "C"G3 G2D/E/ | "F"F2B/A/ G2F/_E/ | "Bb"D3 D3 | 
"Bb"B2B "Bb"B2"F"A | "Gm"G2A/B/ B2A/G/ | "D"^F2"C"G "Gm"G2"D"F | "G"G3 G3 :| 

